X:274
T: Siji Shengchan
N: C1771
O: China, Shandong Huimin
S: III, 350]
R: Xiaodiao]
M: 2/4
L: 1/16
K: A
e2c2c2e2 | f6e2 | a2c2c2e2 | f8
f2e2f2a2 | b8 | b2baf2fa | b3afefa | e8
c2a2b4 | c2a2b4 | e2cba2c2 | b2a2f4
b2b2b2b2 | b2f2e4
a2a2a2c2 | b3afefa | e8

